X:1
T:Away Over Jordan
T:Away Over Jordan
T:Edward E. Nickerson
T:Alice Terrell, 1880
T:Public Domain Courtesy of the Cyber Hymnal™
C:Edward E. Nickerson
Z:Public Domain
Z:Courtesy of the Cyber Hymnal™
%%score ( 1 2 ) ( 3 4 )
L:1/8
Q:1/4=105
M:4/4
K:D
V:1 treble 
V:2 treble 
V:3 bass 
V:4 bass 
V:1
 (D>E) x | [DF]2 [DF]2 ([EG][EG]) [EG]2 | [FA]3 [FA] D3 [CE] | [DF]2 [DF]2 ([DF][FA]) [FA]2 | %4
w: 1.~Oh! *|we are going * to|wear a crown, To|wear a star- * ry|
w: 2.~You *|must re- pent * to|wear a crown, To|wear a star- * ry|
w: 3.~You *|must be saved * to|wear a crown, To|wear a star- * ry|
w: 4.~You *|must be cleansèd * to|wear that crown, To|wear that star- * ry|
w: 5.~You *|must live right * to|wear that crown, To|wear that star- * ry|
w: 6.~You~must *|fight the fight * to|wear that crown, To|wear that star- * ry|
 [CE]6 (D>E) | [DF]2 [DF]2 ([EG][EG]) [EG]2 | [FA]3 [FA] D3 [DE] | [DF]3 [DF] [CE]3 [CE] | D6 z || %9
w: crown. Oh! *|we are going * to|wear a crown, To|wear a star- ry|crown.|
w: crown. You *|must re- pent * to|wear a crown, To|wear a star- ry|crown.|
w: crown. You *|must be saved * to|wear a crown, To|wear a star- ry|crown.|
w: crown. You *|must be cleansèd * to|wear that crown, To|wear that star- ry|crown.|
w: crown. You *|must live right * to|wear that crown, To|wear that star- ry|crown.|
w: crown. You~must *|fight the fight * to|wear that crown, To|wear that star- ry|crown.|
"^Refrain" [FA] | [GB]4 [GB]3 [FA] | [GB]2 [FA]4 [DF]2 | [FA]4 [FA]3 [FA] | [FA]2 [FA]4 [FA]2 | %14
w: |||||
w: |||||
w: |||||
w: |||||
w: |||||
w: |||||
 [GB]4 [GB]3 [FA] | [GB]2 [FA]4 D2 | [DF]3 [DF] [CE]3 [CE] | D6 |] %18
w: ||||
w: ||||
w: ||||
w: ||||
w: ||||
w: ||||
V:2
 D3 | x8 | x4 D3 x | x8 | x6 D2 | x8 | x4 D3 x | x8 | D6 x || x | x8 | x8 | x8 | x8 | x8 | x6 D2 | %16
 x8 | D6 |] %18
V:3
 (F,>G,) x | [D,A,]2 [D,A,]2 ([D,A,][D,A,]) [D,A,]2 | [D,D]3 [D,D] [F,A,]3 A, | %3
w: ||* * * A-|
 [D,A,]2 [D,A,]2 (A,D) [F,D]2 | A,6 (F,>G,) | [D,A,]2 [D,A,]2 ([D,A,][D,A,]) [D,A,]2 | %6
w: |way * *||
 [D,D]3 [D,D] [F,A,]3 [G,B,] | A,3 A, [A,,G,]3 [A,,G,] | [D,F,]6 z || [D,D] | [G,D]4 [G,D]3 [D,D] | %11
w: |o- ver * *||Jor-|dan, With my|
 [D,D]2 [D,D]4 [D,A,]2 | [D,D]4 [D,D]3 [D,D] | [D,D]2 [D,D]4 [D,D]2 | [G,D]4 [G,D]3 [D,D] | %15
w: bless- èd Je-|sus, A- way|o- ver Jor-|dan, To wear|
 [D,D]2 [D,D]4 [F,A,]2 | A,3 A, [A,,G,]3 [A,,G,] | [D,F,]6 |] %18
w: a star- ry|crown. * * *||
V:4
 D,2 x | x8 | x7 A, | x4 [D,A,]2 x2 | A,6 D,2 | x8 | x8 | A,3 A, x4 | x7 || x | x8 | x8 | x8 | x8 | %14
 x8 | x8 | A,3 A, x4 | x6 |] %18

